X: 1898
T: Uyan Ey Gözlerim
C: Ali Ufkî
O: Turkey
F: http://compmusic.upf.edu/node/140
N: evic--ilahi--yuruksemai--uyan_ey--ali_ufki
N: makam= evic
N: form= ilahi
N: usul= yuruksemai = 6/8
M: 6/8
L: 1/16
K: C _1/4B ^f ^c 
Q: 1/4=120
%%MIDI tuningsystem comma53
c4d4 e4f4 f4f4  | f4a4 g2f2e4 f8  | c4d4 e4f4 f4f4  | \
w:  U yan  ey  göz le rim   |  gaf let ten  *  u yan    |  U yan  uy ku su  çok   | 
f4f4 e4a4 a8  | 
w:  göz le rim  u yan    | 
a4a4 g4a2b2 a4g4  | f4a4 g2f2e4 f8  | \
w:  Az ra i lin  *  kas tı   |  câ nâ dır  *  i nan    | 
c4d4 e4f4 f4f4  | f4f4 e4a4 a2gfe2d2  | 
w:  U yan  ey  göz le rim   |  gaf let ten  u yan    | 
f4g4 f2e2d4 c4B4  | A4A4 B4G4 F8  | c4d4 e4f4 f4f4  | \
w:  U yan  uy *  ku su  çok   |  göz le rim  u yan    |  U yan  ey  göz le rim   | 
f4a4 g2f2e4 f8  | 
w:  gaf let ten  *  u yan    | 
c4d4 e4f4 f4f4  | f4f4 e4a4 a8  | a4a4 g4a2b2 a4g4  | \
w:  U yan  uy ku su  çok   |  göz le rim  u yan    |  Az ra i lin  *  kas tı   | 
f4a4 g2f2e4 f8  | 
w:  câ nâ dır  *  i nan    | 
c4d4 e4f4 f4f4  | f4f4 e4a4 a2gfe2d2  | \
w:  U yan  ey  göz le rim   |  gaf let ten  u yan    | 
f4g4 f2e2d4 c4B4  | 
w:  U yan  uy *  ku su  çok   | 
A4A4 B4G4 F8  | c4d4 e4f4 f4f4  | f4a4 g2f2e4 f8  | \
w:  göz le rim  u yan    |  U yan  ey  göz le rim   |  gaf let ten  *  u yan    | 
c4d4 e4f4 f4f4  | 
w:  U yan  uy ku su  çok   | 
f4f4 e4a4 a8  | a4a4 g4a2b2 a4g4  | f4a4 g2f2e4 f8  | \
w:  göz le rim  u yan    |  Az ra i lin  *  kas tı   |  câ nâ dır  *  i nan    | 
c4d4 e4f4 f4f4  | 
w:  U yan  ey  göz le rim   | 
f4f4 e4a4 a2gfe2d2  | f4g4 f2e2d4 c4B4  | \
w:  gaf let ten  u yan    |  U yan  uy *  ku su  çok   | 
A4A4 B4G4 F8  | 
w:  göz le rim  u yan    | 
c4d4 e4f4 f4f4  | f4a4 g2f2e4 f8  | c4d4 e4f4 f4f4  | \
w:  U yan  ey  göz le rim   |  gaf let ten  *  u yan    |  U yan  uy ku su  çok   | 
f4f4 e4a4 a8  | 
w:  göz le rim  u yan    | 
a4a4 g4a2b2 a4g4  | f4a4 g2f2e4 f8  | \
w:  Az ra i lin  *  kas tı   |  câ nâ dır  *  i nan    | 
c4d4 e4f4 f4f4  | f4f4 e4a4 a2gfe2d2  | 
w:  U yan  ey  göz le rim   |  gaf let ten  u yan    | 
f4g4 f2e2d4 c4B4  | A4A4 B4G4 F8  | |


